X: 151
T: Annie Shand Scott
C: Bert Murray
R: reel
B: Bert Murray's "Bon Accord Collection" 1999 p.15
Z: 2011 John Chambers <jc:trillian.mit.edu>
M: C|
L: 1/8
K: G
ud2 |\
gdBG DGBG | FGAB c2(dc) | BGBd gfgb | agfe d2(ef) |
gdBG DGBG | FGAB cedc | BGBd cAFA | G2B2 G2 ||
(uBc) |\
dBGB dGBd | ecGc eceg | dBGB dgdB | edcB A2(Bc) |
dBGB dGBd | ecGc eceg | fdec dBcA | G2B2 G2 |]

%%sep 2 1 500

